svg/part/shoe_2_line.svg

<?xml version="1.0" encoding="UTF-8"?>
<svg width="24px" height="24px" viewBox="0 0 24 24" version="1.1" xmlns="http://www.w3.org/2000/svg" xmlns:xlink="http://www.w3.org/1999/xlink">
    <title>shoe_2_line</title>
    <g id="Icon" stroke="none" stroke-width="1" fill="none" fill-rule="evenodd">
        <g id="Part" transform="translate(-480.000000, -96.000000)" fill-rule="nonzero">
            <g id="shoe_2_line" transform="translate(480.000000, 96.000000)">
                <path d="M24,0 L24,24 L0,24 L0,0 L24,0 Z M12.5934901,23.257841 L12.5819402,23.2595131 L12.5108777,23.2950439 L12.4918791,23.2987469 L12.4918791,23.2987469 L12.4767152,23.2950439 L12.4056548,23.2595131 C12.3958229,23.2563662 12.3870493,23.2590235 12.3821421,23.2649074 L12.3780323,23.275831 L12.360941,23.7031097 L12.3658947,23.7234994 L12.3769048,23.7357139 L12.4804777,23.8096931 L12.4953491,23.8136134 L12.4953491,23.8136134 L12.5071152,23.8096931 L12.6106902,23.7357139 L12.6232938,23.7196733 L12.6232938,23.7196733 L12.6266527,23.7031097 L12.609561,23.275831 C12.6075724,23.2657013 12.6010112,23.2592993 12.5934901,23.257841 L12.5934901,23.257841 Z M12.8583906,23.1452862 L12.8445485,23.1473072 L12.6598443,23.2396597 L12.6498822,23.2499052 L12.6498822,23.2499052 L12.6471943,23.2611114 L12.6650943,23.6906389 L12.6699349,23.7034178 L12.6699349,23.7034178 L12.678386,23.7104931 L12.8793402,23.8032389 C12.8914285,23.8068999 12.9022333,23.8029875 12.9078286,23.7952264 L12.9118235,23.7811639 L12.8776777,23.1665331 C12.8752882,23.1545897 12.8674102,23.1470016 12.8583906,23.1452862 L12.8583906,23.1452862 Z M12.1430473,23.1473072 C12.1332178,23.1423925 12.1221763,23.1452606 12.1156365,23.1525954 L12.1099173,23.1665331 L12.0757714,23.7811639 C12.0751323,23.7926639 12.0828099,23.8018602 12.0926481,23.8045676 L12.108256,23.8032389 L12.3092106,23.7104931 L12.3186497,23.7024347 L12.3186497,23.7024347 L12.3225043,23.6906389 L12.340401,23.2611114 L12.337245,23.2485176 L12.337245,23.2485176 L12.3277531,23.2396597 L12.1430473,23.1473072 Z" id="MingCute"></path>
                <path d="M7.92989,19.09 C7.5579,19.0944 7.1863,19.0643 6.81989,18.9999986 C4.74989,18.63 1.75989,16.68 1.93989,14.61 C2.17989,11.9999986 6.55989,11.9999986 7.99989,11.9999986 C9.91989,11.9999986 11.8899,9.92997 14.6199,7.05997 C15.4299,6.19997 16.3199,5.26997 17.2899,4.28997 C17.597,3.98546 18.065,3.91283 18.4499,4.10997 C20.1283,4.86248 21.3776,6.33221 21.8499,8.10997 C22.1901,9.68836 21.8047,11.3361 20.7999,12.6 C19.6966,14.1912 19.072,16.065 18.9999,17.9999986 C19.0356,18.3572 18.878,18.7064 18.5865,18.916 C18.295,19.1256 17.9138,19.1637 17.5865,19.016 C17.2592,18.8683 17.0356,18.5572 16.9999,18.2 C16.7472,16.8244 16.3379,15.4824 15.7799,14.2 C14.4752,15.086 13.2714,16.1121 12.1899,17.26 C11.0725,18.4161 9.53773,19.0754 7.92989,19.09 Z M18.1699,6.24997 L16.0699,8.42997 C12.9999,11.67 10.7799,14 7.99989,14 C4.41989,14 3.93989,14.76 3.92989,14.77 C3.95059,14.9098 4.00941,15.0413 4.09989,15.15 C4.89501,16.0888 5.97762,16.739 7.17989,17 C8.51515,17.2444 9.88165,16.7788 10.7899,15.77 C12.5199,14.06 14.8299,12 15.9999,12 C16.3699,12 17.0799,12 17.8599,13.83 C18.1968,12.9641 18.6474,12.1469 19.1999,11.4 C19.8608,10.6051 20.1189,9.55023 19.8999,8.53997 C19.639,7.58266 19.0195,6.76258 18.1699,6.24997 Z" id="形状" fill="#09244B"></path>
            </g>
        </g>
    </g>
</svg>

<svg xmlns="http://www.w3.org/2000/svg" width="24" height="24"><g fill="none" fill-rule="nonzero"><path d="M24 0v24H0V0h24ZM12.593 23.258l-.011.002-.071.035-.02.004-.014-.004-.071-.035c-.01-.004-.019-.001-.024.005l-.004.01-.017.428.005.02.01.013.104.074.015.004.012-.004.104-.074.012-.016.004-.017-.017-.427c-.002-.01-.009-.017-.017-.018Zm.265-.113-.013.002-.185.093-.01.01-.003.011.018.43.005.012.008.007.201.093c.012.004.023 0 .029-.008l.004-.014-.034-.614c-.003-.012-.01-.02-.02-.022Zm-.715.002a.023.023 0 0 0-.027.006l-.006.014-.034.614c0 .012.007.02.017.024l.015-.002.201-.093.01-.008.004-.011.017-.43-.003-.012-.01-.01-.184-.092Z"/><path fill="#09244B" d="M7.93 19.09A6.01 6.01 0 0 1 6.82 19c-2.07-.37-5.06-2.32-4.88-4.39C2.18 12 6.56 12 8 12c1.92 0 3.89-2.07 6.62-4.94.81-.86 1.7-1.79 2.67-2.77a1 1 0 0 1 1.16-.18 6.1 6.1 0 0 1 3.4 4 5.39 5.39 0 0 1-1.05 4.49A10.14 10.14 0 0 0 19 18a1.005 1.005 0 0 1-2 .2 18.322 18.322 0 0 0-1.22-4 21.62 21.62 0 0 0-3.59 3.06 6 6 0 0 1-4.26 1.83ZM18.17 6.25l-2.1 2.18C13 11.67 10.78 14 8 14c-3.58 0-4.06.76-4.07.77.02.14.08.271.17.38A5.59 5.59 0 0 0 7.18 17a3.91 3.91 0 0 0 3.61-1.23C12.52 14.06 14.83 12 16 12c.37 0 1.08 0 1.86 1.83a10.47 10.47 0 0 1 1.34-2.43 3.36 3.36 0 0 0 .7-2.86 3.86 3.86 0 0 0-1.73-2.29Z"/></g></svg>
